img/map/marker.svg

<svg width="43" height="59" viewBox="0 0 43 59" fill="none" xmlns="http://www.w3.org/2000/svg">
<path d="M21.5006 0C9.64471 0 0 9.58519 0 21.3679C0 35.9888 19.2407 57.4547 20.0593 58.3581C20.241 58.5589 20.4632 58.7195 20.7114 58.8294C20.9596 58.9394 21.2283 58.9962 21.5 58.9962C21.7717 58.9962 22.0404 58.9394 22.2886 58.8294C22.5368 58.7195 22.759 58.5589 22.9407 58.3581C23.7604 57.4512 43 35.9854 43 21.3679C43 9.58519 33.3553 0 21.5006 0Z" fill="url(#paint0_linear)"/>
<circle cx="21.5" cy="21.5" r="16.5" fill="white"/>
<path d="M17.9786 22.2174V18.75L14 20.2311V23.6971L17.9786 22.2174Z" fill="#EDEDED"/>
<path d="M25.0929 19.7631L23.8071 20.2369C23.3786 20.3979 23.1443 20.6601 23.1443 20.9939V23.9845C23.1924 23.946 23.2459 23.9154 23.3029 23.8936L28.9972 21.7717V18.2983L25.0929 19.7631Z" fill="#E53935"/>
<path d="M17.9786 25.8668V22.3994L14 23.8806V27.348L17.9786 25.8668Z" fill="#033B9E"/>
<path d="M24.9757 24.9264C24.9757 24.7773 24.8829 24.6969 24.69 24.6969H23.3843C23.3311 24.7012 23.2777 24.694 23.2273 24.6756C23.177 24.6572 23.1309 24.6281 23.0919 24.5901C23.0529 24.5522 23.022 24.5061 23.001 24.455C22.98 24.4038 22.9695 24.3487 22.97 24.2931V22.356L20.0929 23.4482L18.8071 23.9205C18.3786 24.083 18.1443 24.3452 18.1443 24.679V27.6592C18.1926 27.621 18.246 27.5904 18.3029 27.5683L24.7814 25.1573C24.9757 25.0724 24.9757 24.9591 24.9757 24.9219" fill="#E53935"/>
<path d="M18.1443 24.1814C18.3026 23.9814 18.5137 23.8342 18.7514 23.7582L20.0371 23.2858L22.9814 22.1802V18.7202L20.0929 19.799L18.8071 20.2714C18.3786 20.4338 18.1443 20.6946 18.1443 21.0298V24.1814Z" fill="#033B9E"/>
<path d="M19.7843 28.8527C19.9772 28.7692 19.9772 28.656 19.9772 28.6187C19.9772 28.4697 19.8843 28.3877 19.6914 28.3877H18.3929C18.3397 28.3921 18.2862 28.3848 18.2359 28.3665C18.1856 28.3481 18.1394 28.319 18.1005 28.281C18.0615 28.243 18.0305 28.197 18.0096 28.1458C17.9886 28.0947 17.978 28.0396 17.9786 27.9839V26.0498L14 27.5309V30.9999L19.7843 28.8527Z" fill="#E53935"/>
<path d="M18.3586 27.7353C18.2786 27.7651 18.1443 27.8366 18.1443 27.9782C18.1441 28.0111 18.1505 28.0436 18.1633 28.0736C18.1761 28.1037 18.1949 28.1305 18.2184 28.1524C18.242 28.1743 18.2697 28.1906 18.2998 28.2004C18.3299 28.2102 18.3616 28.2132 18.3929 28.2092H19.6986C19.7657 28.2042 19.833 28.2151 19.8955 28.2409C19.9581 28.2667 20.0143 28.3067 20.06 28.3582V27.1035L18.3586 27.7353Z" fill="#E53935"/>
<path d="M23.6643 12.9818C23.5048 13.0377 23.3672 13.1464 23.2723 13.2914C23.1774 13.4364 23.1305 13.6097 23.1386 13.785V16.8396C23.2981 16.6407 23.5095 16.4942 23.7472 16.418L25.0329 15.9456L28.9972 14.4659V11L23.6643 12.9818Z" fill="#EDEDED"/>
<path d="M18.6643 16.6698C18.5046 16.725 18.3667 16.8333 18.2718 16.9781C18.1768 17.1229 18.13 17.2962 18.1386 17.4714V20.5276C18.2969 20.3276 18.508 20.1804 18.7457 20.1044L20.0314 19.6321L22.9757 18.5309V15.0649L18.6643 16.6698Z" fill="#EDEDED"/>
<path d="M23.3571 24.0503C23.2771 24.0801 23.1414 24.1516 23.1414 24.2931C23.1413 24.3261 23.148 24.3586 23.1609 24.3887C23.1739 24.4187 23.1928 24.4456 23.2165 24.4674C23.2401 24.4892 23.2679 24.5056 23.2981 24.5154C23.3282 24.5251 23.36 24.5281 23.3914 24.5241H24.6971C24.7642 24.5192 24.8315 24.53 24.894 24.5558C24.9566 24.5816 25.0128 24.6217 25.0585 24.6731V23.4185L23.3571 24.0503Z" fill="#E53935"/>
<path d="M25.0929 16.1082L23.8071 16.5806C23.3786 16.743 23.1443 17.0052 23.1443 17.339V20.4905C23.3024 20.2906 23.5136 20.1439 23.7514 20.0689L25.0371 19.595L29 18.1154V14.6494L25.0929 16.1082Z" fill="#033B9E"/>
<defs>
<linearGradient id="paint0_linear" x1="21.5" y1="0" x2="21.5" y2="58.9962" gradientUnits="userSpaceOnUse">
<stop stop-color="#0040B5"/>
<stop offset="1" stop-color="#002974"/>
</linearGradient>
</defs>
</svg>

<svg width="43" height="59" fill="none" xmlns="http://www.w3.org/2000/svg"><path d="M21.5 0C9.646 0 0 9.585 0 21.368c0 14.62 19.24 36.087 20.06 36.99a1.937 1.937 0 001.44.638 1.946 1.946 0 001.44-.638C23.76 57.451 43 35.985 43 21.368 43 9.585 33.355 0 21.5 0z" fill="url(#paint0_linear)"/><circle cx="21.5" cy="21.5" r="16.5" fill="#fff"/><path d="M17.979 22.217V18.75L14 20.231v3.466l3.979-1.48z" fill="#EDEDED"/><path d="M25.093 19.763l-1.286.474c-.428.16-.663.423-.663.757v2.99a.592.592 0 01.159-.09l5.694-2.122v-3.474l-3.904 1.465z" fill="#E53935"/><path d="M17.979 25.867v-3.468L14 23.881v3.467l3.979-1.481z" fill="#033B9E"/><path d="M24.976 24.926c0-.149-.093-.23-.286-.23h-1.306a.37.37 0 01-.292-.106.4.4 0 01-.122-.297v-1.937l-2.877 1.092-1.286.473c-.428.162-.663.424-.663.758v2.98a.614.614 0 01.159-.09l6.478-2.412c.195-.085.195-.198.195-.235" fill="#E53935"/><path d="M18.144 24.181c.159-.2.37-.347.607-.423l1.286-.472 2.944-1.106v-3.46l-2.888 1.08-1.286.472c-.428.163-.663.424-.663.759v3.151z" fill="#033B9E"/><path d="M19.784 28.853c.193-.084.193-.197.193-.234 0-.15-.093-.231-.286-.231h-1.298a.37.37 0 01-.293-.107.4.4 0 01-.121-.297V26.05L14 27.53V31l5.784-2.147z" fill="#E53935"/><path d="M18.359 27.735c-.08.03-.215.102-.215.243a.24.24 0 00.074.174.22.22 0 00.175.057h1.306a.432.432 0 01.361.15v-1.256l-1.701.632z" fill="#E53935"/><path d="M23.664 12.982a.777.777 0 00-.392.31.832.832 0 00-.133.493v3.055c.16-.2.37-.346.608-.422l1.286-.472 3.964-1.48V11l-5.333 1.982zm-5 3.688a.772.772 0 00-.392.308.826.826 0 00-.133.493v3.057c.158-.2.369-.348.607-.424l1.285-.472 2.945-1.101v-3.466l-4.312 1.605z" fill="#EDEDED"/><path d="M23.357 24.05c-.08.03-.216.102-.216.243a.24.24 0 00.076.174.22.22 0 00.174.057h1.306a.433.433 0 01.361.15v-1.255l-1.7.631z" fill="#E53935"/><path d="M25.093 16.108l-1.286.473c-.428.162-.663.424-.663.758v3.152c.158-.2.37-.347.607-.422l1.286-.474L29 18.115V14.65l-3.907 1.46z" fill="#033B9E"/><defs><linearGradient id="paint0_linear" x1="21.5" y1="0" x2="21.5" y2="58.996" gradientUnits="userSpaceOnUse"><stop stop-color="#0040B5"/><stop offset="1" stop-color="#002974"/></linearGradient></defs></svg>
